X:2
T:The Battle of Waterloo
R:March
C:Unknown
M:4/4
L:1/8
K:D
[| {g}A2 {GdGe}A{d}B {gAd}A{e}G {g}GA | {GdG}c>d {gef}ec {Gdc}d2 {g}e{gf}g | {ag}a>g {g}ed {gef}e>d {g}B{e}A | {g}G>{d}G {e}G{d}A {gGd}G2 {g}e/>d/B |
{g}A2 {GdGe}A{d}B {gAd}A{e}G {g}GA | {GdG}c>d {gef}ec {Gdc}d2 {g}e{gf}g | {ag}a>g {g}ed {gef}e>d {g}B{e}G | {g}A4 {GAG}A3 {gf}g |]
[| {ag}a>g {g}ed {g}c2 {GdG}ef | {gf}g>a {f}ge {gf}g2 {a}e/>f/g/>e/ | {ag}a>g {a}ed {gef}e>d {g}B{e}A | {g}G>{d}G {e}G{d}A {gGd}G2 {g}e/>d/B |
{g}A2 {GdGe}A{d}B {gAd}A{e}G {g}GA | {GdG}c>d {gef}ec {Gdc}d2 {g}e{gf}g | {ag}a>g {a}ed {gef}e>d {g}B{e}G | {g}A4 {GAG}A3 z |]